X:1
T:Mally's Meek
M:4/4
L:1/8
K:G
 z6 z z/2 F/2-| E/2 E3/2 B2 B3/2 A/2 B2| AF d3/2 B/2 AF D2| E/2 E3/2 B2 B3/2 A/2 B2|\
 A/2 d3/2 B3/2 d/2 A3/2 F/2 E3/2 F/2| E/2 E3/2 e3/2 f/2g/2-f/2e/2-d/2 e3/2 e/2|\
 d3/2 e/2 f3/2 e/2 dB A3/2 A/2| AB def/2-e/2d/2-^c/2 d3/2 d/2| B3/2 d/2A/2 D3/2 AF E3/2 z/2|\
